symbols/web/room_preferences/materialsymbolsrounded/room_preferences_wght700gradN25fill1_24px.svg

<svg xmlns="http://www.w3.org/2000/svg" height="24" width="24"><path d="M17.775 23.35q-.25 0-.463-.187-.212-.188-.287-.463l-.175-.875q-.225-.075-.45-.2t-.425-.3l-.925.3q-.275.1-.538 0-.262-.1-.362-.35l-.625-1q-.15-.25-.1-.538.05-.287.275-.487l.75-.575q-.075-.225-.063-.538.013-.312.063-.537l-.75-.575q-.225-.2-.275-.487-.05-.288.1-.538l.625-1q.125-.25.375-.338.25-.087.525.013l.925.3q.2-.175.425-.3.225-.125.45-.2l.175-.9q.075-.25.287-.438.213-.187.463-.187H19q.25 0 .462.187.213.188.288.438l.175.9q.225.075.45.2t.45.325l.875-.325q.275-.1.538.013.262.112.412.337l.6 1.025q.15.25.1.537-.05.288-.275.463l-.75.625q.1.225.088.5-.013.275-.088.5l.75.6q.225.2.275.488.05.287-.1.512L22.6 21.3q-.1.225-.35.325-.25.1-.525 0l-.9-.3q-.225.175-.45.3t-.45.2l-.175.875q-.075.275-.288.463-.212.187-.462.187Zm.6-3.4q.725 0 1.275-.537.55-.538.55-1.263 0-.725-.55-1.262-.55-.538-1.275-.538-.725 0-1.262.538-.538.537-.538 1.262t.538 1.263q.537.537 1.262.537Zm-8.025-6.775q.5 0 .838-.338.337-.337.337-.837 0-.5-.337-.838-.338-.337-.838-.337-.475 0-.825.337-.35.338-.35.838 0 .475.338.825.337.35.837.35ZM2.85 21.6q-.625 0-1.075-.45-.45-.45-.45-1.075 0-.6.45-1.05.45-.45 1.075-.45h.825v-14.7q0-.625.437-1.063.438-.437 1.063-.437h8.65q.425 0 .825.262.4.263.55.663v.05h3.625q.625 0 1.063.437.437.438.437 1.063v6.225H17.3v-4.7h-1.975V11.8q-.9.425-1.687 1.138-.788.712-1.338 1.612-.475.8-.738 1.712-.262.913-.262 1.888v.162q0 .088.05.263.075.9.288 1.637.212.738.587 1.388Z"/></svg>

<svg xmlns="http://www.w3.org/2000/svg" height="24" width="24"><path d="M17.775 23.35Q17.525 23.35 17.312 23.163Q17.1 22.975 17.025 22.7L16.85 21.825Q16.625 21.75 16.4 21.625Q16.175 21.5 15.975 21.325L15.05 21.625Q14.775 21.725 14.512 21.625Q14.25 21.525 14.15 21.275L13.525 20.275Q13.375 20.025 13.425 19.737Q13.475 19.45 13.7 19.25L14.45 18.675Q14.375 18.45 14.387 18.137Q14.4 17.825 14.45 17.6L13.7 17.025Q13.475 16.825 13.425 16.538Q13.375 16.25 13.525 16L14.15 15Q14.275 14.75 14.525 14.662Q14.775 14.575 15.05 14.675L15.975 14.975Q16.175 14.8 16.4 14.675Q16.625 14.55 16.85 14.475L17.025 13.575Q17.1 13.325 17.312 13.137Q17.525 12.95 17.775 12.95H19Q19.25 12.95 19.462 13.137Q19.675 13.325 19.75 13.575L19.925 14.475Q20.15 14.55 20.375 14.675Q20.6 14.8 20.825 15L21.7 14.675Q21.975 14.575 22.238 14.688Q22.5 14.8 22.65 15.025L23.25 16.05Q23.4 16.3 23.35 16.587Q23.3 16.875 23.075 17.05L22.325 17.675Q22.425 17.9 22.413 18.175Q22.4 18.45 22.325 18.675L23.075 19.275Q23.3 19.475 23.35 19.763Q23.4 20.05 23.25 20.275L22.6 21.3Q22.5 21.525 22.25 21.625Q22 21.725 21.725 21.625L20.825 21.325Q20.6 21.5 20.375 21.625Q20.15 21.75 19.925 21.825L19.75 22.7Q19.675 22.975 19.462 23.163Q19.25 23.35 19 23.35ZM18.375 19.95Q19.1 19.95 19.65 19.413Q20.2 18.875 20.2 18.15Q20.2 17.425 19.65 16.888Q19.1 16.35 18.375 16.35Q17.65 16.35 17.113 16.888Q16.575 17.425 16.575 18.15Q16.575 18.875 17.113 19.413Q17.65 19.95 18.375 19.95ZM10.35 13.175Q10.85 13.175 11.188 12.837Q11.525 12.5 11.525 12Q11.525 11.5 11.188 11.162Q10.85 10.825 10.35 10.825Q9.875 10.825 9.525 11.162Q9.175 11.5 9.175 12Q9.175 12.475 9.513 12.825Q9.85 13.175 10.35 13.175ZM2.85 21.6Q2.225 21.6 1.775 21.15Q1.325 20.7 1.325 20.075Q1.325 19.475 1.775 19.025Q2.225 18.575 2.85 18.575H3.675V3.875Q3.675 3.25 4.112 2.812Q4.55 2.375 5.175 2.375H13.825Q14.25 2.375 14.65 2.637Q15.05 2.9 15.2 3.3V3.35H18.825Q19.45 3.35 19.888 3.787Q20.325 4.225 20.325 4.85V11.075H17.3V6.375H15.325V11.8Q14.425 12.225 13.638 12.938Q12.85 13.65 12.3 14.55Q11.825 15.35 11.562 16.262Q11.3 17.175 11.3 18.15Q11.3 18.225 11.3 18.312Q11.3 18.4 11.35 18.575Q11.425 19.475 11.638 20.212Q11.85 20.95 12.225 21.6Z"/></svg>
